src/assets/img/providers/vibragaming-g.svg

<svg width="72" height="34" viewBox="0 0 72 34" fill="none" xmlns="http://www.w3.org/2000/svg">
<g clip-path="url(#clip0_4416_8595)">
<path fill-rule="evenodd" clip-rule="evenodd" d="M16.4761 12.9781C16.4761 12.9781 18.37 0.658866 22.1936 1.1788C28.0337 1.97335 24.0298 16.971 18.3829 16.5646C18.3829 16.5646 16.0926 29.6573 12.2956 29.541C5.11441 29.541 -3.57899 1.71522 2.93672 0.0528818C4.99291 -0.532649 8.6077 3.94805 11.7371 7.82713C13.6566 10.2064 15.3935 12.3593 16.4761 12.9781ZM4.16792 2.35049C3.53628 3.82976 8.23219 25.5884 12.983 25.5884C14.3213 25.5884 15.7768 16.3421 15.7768 16.3421C12.9617 14.8209 9.37549 9.47127 6.93418 5.82957L6.93418 5.82956L6.93418 5.82956C5.4134 3.56101 4.33692 1.95522 4.16792 2.35049ZM18.7847 13.5804C18.5916 13.5804 21.0292 2.65623 22.8454 2.80361C23.6463 2.99675 21.9153 10.8434 18.7847 13.5804ZM27.987 16.1363L31.5058 24.3536L35.1023 16.1363H37.4164L32.5951 27.152H30.3725L25.5512 16.1363H27.987ZM39.8797 12.3777C39.4531 12.3777 39.0924 12.5214 38.8077 12.8061C38.5231 13.0908 38.3793 13.4377 38.3793 13.8378C38.3793 14.2387 38.524 14.5828 38.8096 14.8612C39.0933 15.1376 39.4531 15.2777 39.8788 15.2777C40.3053 15.2777 40.666 15.1339 40.9507 14.8493C41.2354 14.5646 41.3791 14.2112 41.3791 13.7975C41.3791 13.3956 41.2335 13.0541 40.9461 12.7823C40.6632 12.5132 40.3035 12.3777 39.8797 12.3777ZM38.7208 16.1363H41.0395V27.152H38.7208V16.1363ZM51.799 16.7435C50.9579 16.2748 49.995 16.0368 48.9375 16.0368C48.1521 16.0368 47.417 16.1878 46.7524 16.4844C46.2499 16.7096 45.806 17.019 45.4279 17.4062V12.5025H43.1092V27.1523H45.3483V25.8204C45.7291 26.2268 46.1785 26.5527 46.6902 26.7926C47.3676 27.1111 48.1237 27.2722 48.9384 27.2722C49.9964 27.2722 50.9592 27.0342 51.7997 26.5655C52.6429 26.0959 53.3127 25.4259 53.7901 24.5764C54.2661 23.7288 54.5068 22.742 54.5068 21.6445C54.5068 20.546 54.2647 19.5629 53.7901 18.7216C53.3113 17.8795 52.6422 17.2131 51.799 16.7435ZM52.1669 21.6445C52.1669 22.3419 52.0166 22.9672 51.7201 23.5027C51.4257 24.0363 51.0184 24.4565 50.5111 24.7503C50.0032 25.0451 49.4199 25.1943 48.7763 25.1943C48.1466 25.1943 47.5653 25.0451 47.0508 24.7494C46.5382 24.4556 46.1318 24.0372 45.8435 23.5045C45.5533 22.969 45.4068 22.3429 45.4068 21.6445C45.4068 20.946 45.5542 20.3208 45.8435 19.7844C46.1309 19.2526 46.5364 18.8378 47.049 18.5505C47.5644 18.2612 48.1456 18.1147 48.7763 18.1147C49.4199 18.1147 50.0038 18.2612 50.5118 18.5495C51.0184 18.837 51.4244 19.2535 51.7195 19.7862C52.0166 20.3226 52.1669 20.9478 52.1669 21.6445ZM61.4821 16.0366H61.6793V18.3214L61.4583 18.294C61.3583 18.2821 61.2182 18.2757 61.0414 18.2757C60.0602 18.2757 59.2823 18.5686 58.7295 19.1462C58.1746 19.7256 57.8924 20.5733 57.8924 21.6644V27.1521H55.5736V16.1364H57.8121V17.472C58.1297 17.0847 58.5316 16.7717 59.0103 16.5373C59.6883 16.2051 60.5206 16.0366 61.4821 16.0366ZM70.0025 17.1708C69.1865 16.4183 68.0061 16.0366 66.4917 16.0366C65.622 16.0366 64.7863 16.1575 64.009 16.3964C63.2264 16.6362 62.5436 16.9886 61.9799 17.4436L61.85 17.5479L62.8483 19.3458L63.0319 19.192C63.4249 18.8624 63.9159 18.5942 64.4918 18.3955C65.0691 18.1969 65.6682 18.0953 66.2714 18.0953C67.1506 18.0953 67.8211 18.3003 68.2624 18.7049C68.6976 19.105 68.9193 19.6963 68.9193 20.4634V20.6465H66.0708C64.5476 20.6465 63.4127 20.9486 62.6987 21.5436C61.9731 22.1477 61.6052 22.9578 61.6052 23.9501C61.6052 24.9442 61.9908 25.758 62.7517 26.3686C63.4984 26.9691 64.5007 27.2738 65.7308 27.2738C66.5692 27.2738 67.307 27.1365 67.9244 26.8665C68.3556 26.677 68.7228 26.4262 69.0199 26.1177V27.153H71.2387V20.543C71.2381 19.0619 70.8212 17.9278 70.0025 17.1708ZM68.9193 22.4232V23.67C68.6949 24.2119 68.3365 24.6367 67.851 24.9332C67.3512 25.2399 66.7453 25.3946 66.0504 25.3946C65.3622 25.3946 64.8223 25.2527 64.4449 24.9726C64.0804 24.7026 63.9036 24.341 63.9036 23.8686C63.9036 23.5107 63.9036 22.4232 66.151 22.4232H68.9193ZM45.7436 30.5258C45.9853 30.3958 46.2626 30.3299 46.5675 30.3299C47.0206 30.3299 47.4123 30.4846 47.7318 30.7895L47.7685 30.8242L48.206 30.3913L48.1721 30.3547C47.979 30.1432 47.74 29.9803 47.4646 29.8704C47.1899 29.7615 46.8796 29.7056 46.5437 29.7056C46.1153 29.7056 45.7244 29.7981 45.3811 29.9811C45.0369 30.1643 44.7642 30.4233 44.5692 30.7492C44.3742 31.0759 44.2753 31.4467 44.2753 31.8531C44.2753 32.2587 44.3742 32.6294 44.5692 32.9534C44.7642 33.2784 45.036 33.5365 45.3784 33.7214C45.7198 33.9064 46.1079 33.9997 46.5327 33.9997C46.832 33.9997 47.124 33.9539 47.4005 33.8624C47.6769 33.7708 47.9232 33.6381 48.1328 33.4669L48.152 33.4514V31.7772H47.481V33.1347C47.2201 33.2939 46.9107 33.3754 46.5629 33.3754C46.2617 33.3754 45.9862 33.3086 45.7445 33.1768C45.5038 33.0459 45.3125 32.8619 45.1761 32.6312C45.0397 32.4005 44.9701 32.1387 44.9701 31.8531C44.9701 31.563 45.0397 31.2993 45.1761 31.0687C45.3116 30.8379 45.5029 30.6549 45.7436 30.5258ZM50.8096 29.7521L48.888 33.9528H49.6115L50.0664 32.9285H52.1989L52.6538 33.9528H53.3889L51.4611 29.7521H50.8096ZM51.9452 32.3573H50.3187L51.1326 30.5284L51.9452 32.3573ZM56.5005 32.5834L58.1747 29.7521H58.7405L58.7466 33.9528H58.0761L58.07 31.1014L56.6542 33.4558H56.3237L54.9087 31.1188V33.9528H54.2375V29.7521H54.8033L56.5005 32.5834ZM60.9464 29.7521H60.2514V33.9528H60.9464V29.7521ZM63.0271 29.7713L65.4186 32.7143V29.7521H66.1136V33.9528H65.5526L65.5369 33.9345L63.1454 30.9915V33.9528H62.4504V29.7521H63.0114L63.0271 29.7713ZM70.4866 33.136C70.2255 33.2952 69.9161 33.3767 69.5686 33.3767C69.2674 33.3767 68.9913 33.3098 68.7499 33.178C68.5092 33.0471 68.3181 32.8631 68.1814 32.6325C68.0447 32.4018 67.9754 32.14 67.9754 31.8544C67.9754 31.5642 68.0447 31.3006 68.1814 31.0699C68.3181 30.8393 68.5092 30.6561 68.7499 30.5271C68.9913 30.3971 69.2687 30.3312 69.574 30.3312C70.0269 30.3312 70.4186 30.4859 70.7382 30.7907L70.7749 30.8255L71.2122 30.3925L71.1782 30.3559C70.985 30.1444 70.7464 29.9815 70.471 29.8717C70.1962 29.7628 69.8862 29.7069 69.5502 29.7069C69.1218 29.7069 68.7309 29.7994 68.3875 29.9825C68.0434 30.1655 67.7707 30.4245 67.5755 30.7505C67.3804 31.0773 67.2818 31.448 67.2818 31.8544C67.2818 32.2599 67.3804 32.6306 67.5755 32.9547C67.7707 33.2796 68.042 33.5378 68.3847 33.7227C68.7261 33.9076 69.1144 34.001 69.5387 34.001C69.8386 34.001 70.1303 33.9552 70.407 33.8637C70.6831 33.7722 70.9293 33.6394 71.1394 33.4682L71.1584 33.4526V31.7784H70.4873L70.4866 33.136Z" fill="#00AB55"/>
</g>
<defs>
<clipPath id="clip0_4416_8595">
<rect width="70.7195" height="34" fill="white" transform="translate(0.640244 0.000976562)"/>
</clipPath>
</defs>
</svg>

<svg xmlns="http://www.w3.org/2000/svg" width="72" height="34" fill="none"><g clip-path="url(#a)"><path fill="#00AB55" fill-rule="evenodd" d="M16.476 12.978s1.894-12.32 5.718-11.8c5.84.795 1.836 15.793-3.811 15.387 0 0-2.29 13.092-6.087 12.976-7.182 0-15.875-27.826-9.36-29.488 2.057-.586 5.672 3.895 8.801 7.774 1.92 2.38 3.656 4.532 4.74 5.151ZM4.168 2.35c-.632 1.48 4.064 23.238 8.815 23.238 1.338 0 2.794-9.246 2.794-9.246-2.815-1.521-6.402-6.87-8.843-10.512-1.52-2.269-2.597-3.875-2.766-3.48Zm14.617 11.23c-.193 0 2.244-10.924 4.06-10.776.801.193-.93 8.04-4.06 10.776Zm9.202 2.556 3.519 8.218 3.596-8.218h2.314l-4.82 11.016h-2.223L25.55 16.136h2.436Zm11.893-3.758a1.46 1.46 0 0 0-1.072.428 1.412 1.412 0 0 0-.429 1.032c0 .4.145.745.43 1.023.284.277.644.417 1.07.417a1.46 1.46 0 0 0 1.072-.429c.284-.284.428-.638.428-1.052 0-.401-.145-.743-.433-1.015-.283-.269-.642-.404-1.066-.404Zm-1.16 3.758h2.32v11.016h-2.32V16.136Zm13.079.608c-.841-.47-1.804-.707-2.861-.707-.786 0-1.521.15-2.186.447a4.292 4.292 0 0 0-1.324.922v-4.903h-2.319v14.65h2.24V25.82c.38.407.83.733 1.341.973a5.24 5.24 0 0 0 2.248.48c1.058 0 2.021-.239 2.862-.707a5.104 5.104 0 0 0 1.99-1.99c.476-.847.717-1.834.717-2.931 0-1.099-.242-2.082-.717-2.923a5.137 5.137 0 0 0-1.991-1.979Zm.368 4.9c0 .698-.15 1.323-.447 1.859a3.206 3.206 0 0 1-1.209 1.247 3.406 3.406 0 0 1-1.735.444c-.63 0-1.21-.149-1.725-.445a3.124 3.124 0 0 1-1.208-1.244c-.29-.536-.436-1.162-.436-1.86 0-.699.147-1.324.437-1.86a3.05 3.05 0 0 1 1.205-1.235 3.483 3.483 0 0 1 1.727-.435 3.47 3.47 0 0 1 1.736.434c.506.288.912.704 1.207 1.237.298.537.448 1.162.448 1.858Zm9.315-5.607h.197v2.284l-.22-.027c-.1-.012-.24-.018-.418-.018-.98 0-1.759.293-2.311.87-.555.58-.838 1.427-.838 2.518v5.488h-2.318V16.136h2.238v1.336c.318-.387.72-.7 1.198-.935.678-.332 1.51-.5 2.472-.5Zm8.52 1.134c-.816-.753-1.996-1.134-3.51-1.134-.87 0-1.706.12-2.483.36-.783.24-1.465.592-2.03 1.047l-.129.104.998 1.798.184-.154c.393-.33.884-.598 1.46-.797a5.462 5.462 0 0 1 1.78-.3c.879 0 1.55.205 1.99.61.436.4.657.991.657 1.758v.183h-2.848c-1.523 0-2.658.303-3.372.898-.726.604-1.094 1.414-1.094 2.406 0 .994.386 1.808 1.147 2.419.746.6 1.749.905 2.979.905.838 0 1.576-.137 2.193-.408.432-.189.799-.44 1.096-.748v1.035h2.219v-6.61c0-1.481-.418-2.615-1.237-3.372Zm-1.083 5.252v1.247a2.616 2.616 0 0 1-1.068 1.263c-.5.307-1.106.462-1.8.462-.689 0-1.229-.142-1.606-.422-.365-.27-.541-.632-.541-1.104 0-.358 0-1.446 2.247-1.446h2.768Zm-23.175 8.103a1.72 1.72 0 0 1 .824-.196c.453 0 .844.155 1.164.46l.037.034.437-.433-.034-.036a1.904 1.904 0 0 0-.707-.485 2.492 2.492 0 0 0-.921-.164c-.429 0-.82.092-1.163.275a2.058 2.058 0 0 0-.812.768 2.12 2.12 0 0 0-.294 1.104c0 .406.1.776.294 1.1.195.325.467.583.81.768.34.185.729.279 1.154.279.299 0 .591-.046.867-.138.277-.091.523-.224.733-.395l.019-.016v-1.674h-.671v1.358c-.26.159-.57.24-.918.24a1.69 1.69 0 0 1-.819-.198 1.462 1.462 0 0 1-.568-.546 1.507 1.507 0 0 1-.206-.778c0-.29.07-.554.206-.784.136-.231.327-.414.568-.543Zm5.066-.774-1.922 4.2h.724l.454-1.023H52.2l.455 1.024h.735l-1.928-4.2h-.651Zm1.135 2.605H50.32l.814-1.829.812 1.83Zm4.556.226 1.674-2.83h.566l.006 4.2h-.67L58.07 31.1l-1.416 2.355h-.33l-1.415-2.337v2.834h-.672v-4.2h.566l1.698 2.83Zm4.445-2.83h-.695v4.2h.695v-4.2Zm2.081.018 2.392 2.943v-2.962h.695v4.2h-.561l-.016-.017-2.392-2.944v2.962h-.695v-4.2h.561l.016.018Zm7.46 3.365c-.261.16-.57.24-.918.24a1.69 1.69 0 0 1-.82-.198 1.464 1.464 0 0 1-.568-.545 1.504 1.504 0 0 1-.206-.779c0-.29.07-.553.206-.784.137-.23.328-.414.569-.543.241-.13.519-.196.824-.196.453 0 .845.155 1.164.46l.037.035.437-.434-.034-.036a1.903 1.903 0 0 0-.707-.484 2.492 2.492 0 0 0-.92-.165c-.43 0-.82.092-1.163.276a2.058 2.058 0 0 0-.813.767 2.12 2.12 0 0 0-.293 1.104c0 .406.098.777.294 1.1.195.326.466.584.809.769.341.185.73.278 1.154.278.3 0 .591-.046.868-.137.276-.092.522-.225.732-.396l.02-.015v-1.675h-.672v1.358Z" clip-rule="evenodd"/></g><defs><clipPath id="a"><path fill="#fff" d="M.64.001h70.72v34H.64z"/></clipPath></defs></svg>
